assets/sonr-icons/currency-pound.svg

<svg xmlns="http://www.w3.org/2000/svg" width="24" height="24" fill="none" viewBox="0 0 24 24"><path fill="#000" d="M9.62612 5.62022C9.27917 5.99618 9.0097 6.57518 9.00801 7.48692C9.0201 8.29849 9.35832 8.87805 9.86578 9.74761L9.90413 9.81333C10.3142 10.5165 10.7851 11.3564 10.9649 12.48H14.88C15.4102 12.48 15.84 12.9098 15.84 13.44C15.84 13.9702 15.4102 14.4 14.88 14.4H10.9848C10.7696 16.2671 9.96017 17.7991 9.18006 18.8866C9.10221 18.9951 9.02437 19.0996 8.94709 19.2H17.28C17.8102 19.2 18.24 19.6298 18.24 20.16C18.24 20.6902 17.8102 21.12 17.28 21.12H6.72C6.31102 21.12 5.94694 20.8609 5.81297 20.4745C5.67926 20.0888 5.80408 19.6608 6.12393 19.4075L6.12527 19.4064L6.14528 19.39C6.1636 19.3748 6.19316 19.35 6.23235 19.3157C6.31082 19.247 6.42745 19.1411 6.56957 19.0004C6.85468 18.7182 7.2375 18.3006 7.61995 17.7674C8.24615 16.8945 8.84592 15.7483 9.04811 14.4H6.72C6.18981 14.4 5.76 13.9702 5.76 13.44C5.76 12.9098 6.18981 12.48 6.72 12.48H9.00851C8.85986 11.8673 8.57668 11.3483 8.24563 10.7807C8.21491 10.728 8.18345 10.6745 8.15146 10.6201C7.68479 9.82639 7.1052 8.84063 7.08808 7.50531L7.08801 7.49258C7.0886 6.16908 7.49316 5.10044 8.21514 4.3181C8.92583 3.54799 9.86864 3.13652 10.813 2.97072C12.6432 2.64939 14.7822 3.20386 15.9751 4.33695C16.3596 4.70209 16.3752 5.30973 16.0101 5.69415C15.6449 6.07857 15.0373 6.0942 14.6529 5.72906C13.9718 5.08215 12.4788 4.62762 11.145 4.86179C10.5074 4.97374 9.98518 5.23114 9.62612 5.62022Z"/></svg>

<svg xmlns="http://www.w3.org/2000/svg" width="24" height="24" fill="none"><path fill="currentColor" d="M9.626 5.62c-.347.376-.616.955-.618 1.867.012.811.35 1.391.858 2.26l.038.066c.41.704.881 1.543 1.06 2.667h3.916a.96.96 0 1 1 0 1.92h-3.895c-.215 1.867-1.025 3.4-1.805 4.487q-.117.163-.233.313h8.333a.96.96 0 1 1 0 1.92H6.72a.96.96 0 0 1-.596-1.713h.001l.02-.017.087-.074c.079-.069.195-.175.338-.316.285-.282.667-.7 1.05-1.233.626-.872 1.226-2.019 1.428-3.367H6.72a.96.96 0 1 1 0-1.92h2.289c-.15-.613-.432-1.132-.763-1.7l-.095-.16c-.466-.794-1.046-1.78-1.063-3.115v-.012c0-1.324.405-2.393 1.127-3.175.71-.77 1.654-1.181 2.598-1.347 1.83-.322 3.97.233 5.162 1.366a.96.96 0 1 1-1.322 1.392c-.681-.647-2.174-1.101-3.508-.867-.638.112-1.16.37-1.519.758"/></svg>
